!!!OTL: Ob ich gleich ein Sch&auml;fer bin (Band 1), S. 171
!!!id: P0833
**kern
*clefG2
*k[b-]
*F:
{16f
=1
16f
4c
4c
=2
8.f
16g
8a
16b-
16a
=3
8.g
16f
8e
8f
=4
4g}
4r
=5
{4f
4a
=6
8cc
8dd
8cc
8b-
=7
4a
4g
=8
4f}
4r
=9
{4a
8cc
8g
=10
4a
8r
8cc
=11
8.cc
16b-
8b-
8a
=12
8a
8g
4g}
=13
{4a
8cc
8g
=14
4.a
8cc
=15
8cc
16cc
16cc
8b-
8a
=16
8a
8g
4g}
=17
{4f
4f
=18
8f
16a
16a
8a
8a
=19
8g
16g
16g
8g
8f
=20
8g
16g
16g
4g}
=21
{8f
16f
16f
8f
8a
=22
8.cc
16dd
8cc
8b-
=23
4a
8.g
16f
=24
4f}
4r
=25
{4f
4f
=26
8.f
16g
8a
16b-
16a
=27
8.g
16f
8e
8f
=28
4g}
4r
=29
{4f
4a
=30
8cc
8dd
8cc
8b-
=31
4a
8.g
16f
=32
4f}
4r
==
*-
!!!minrhy: 16
!!!meters: 2/4 ]  ZZ[8
!!!cut: Ob ich gleich ein Sch&auml;fer bin (Band 1), S. 171
!!!reg: Lothringen
!!!trd: PINCK, Louis: Verklingende Weisen, Bd 1, Metz 1928
!!!rhy1:   X__X__  X_.XX_XX  X_.XX_X_  X__0__
!!!rhy2: X__X__  X_X_X_X_  X__X__  X__0__
!!!key: P0833  16  F 2/4 ]  ZZ[8
!!!mod: HEPTATONIK IONISCH]  AMBITUS[9
!!!kad: 21222121
!!!akz: -5122_1531_3353_3353_1122_1531_1122_1531_
!!!fot: 'a__b__c__bs"d__bw_aw_b__
!!!for: 'a__b__c__d__e__f__a__g__
!!!fok: '~a_^__Md_Md_/__^__~a_^__
!! PHRAS[VOLLTAKTIG]
!!!fkt: Arbeits., Berufslied
!! LOTH VKL
!! PR[34] 2K[4] 2G[13] 3K[11] 3G[5] 4A[4] 4Ü[0] 5A[0] 6K[0] 6G[0]
!! 7K[0] 7G[0] 8A[0] MEHR[0] SI[36] ABS[56] SR[16] SP[20]
!! ST[9] 2k[2] 2g[13] 3k[11] 3g[2] 4d[0] 4ü[0] 5d[4] 6k[0] 6g[0]
!! 7k[0] 7g[0] 8d[0] mehr[0] si[30] dm[+6] sr[14] sp[16]
!! 1F[8] 2F[58] 3F[13] 4F[2] LF[0] 2P[5] 3P[3] 4P[0] TRI[0] DF[7] AB[60]
!! TF[0] U3K[0] U3[0] U4[0] U4Ü[0] U5[9] U6K[0] U6[7] U7K[0] U7[4]
!! N1[14] N2K[0] N2[23] N3K[0] N3[16] N4[11] N4Ü[0] N5[14] N6K[0] N6[4]
!!!n7k: 0] N7[0] O1[0] O2K[0] O2[0] O3K[0] O3[0] HÖ[0
!!!RNB: symbol: &auml;      = a umlaut  (UTF-8: Å„)
